src/img/skills/css.svg

<svg width="120" height="119" viewBox="0 0 120 119" fill="none" xmlns="http://www.w3.org/2000/svg">
<path d="M22.1325 101.154L13.71 7.4375H106.29L97.8562 101.139L59.9437 111.562L22.1325 101.154Z" fill="#1572B6"/>
<path d="M60 103.597L90.6375 95.174L97.845 15.1018H60V103.597Z" fill="#33A9DC"/>
<path d="M60 49.054H75.3375L76.395 37.2842H60V25.7895H89.0625L88.785 28.8724L85.9387 60.5487H60V49.054Z" fill="white"/>
<path d="M60.0713 78.9044L60.0188 78.9193L47.1113 75.4609L46.2863 66.2942H34.65L36.2738 84.3413L60.015 90.8788L60.0713 90.8639V78.9044Z" fill="#EBEBEB"/>
<path d="M74.3513 60.0615L72.9563 75.4534L60.03 78.9119V90.8714L83.79 84.3412L83.9663 82.4001L85.98 60.0615H74.3513Z" fill="white"/>
<path d="M60.0413 25.7895V37.2842H32.0438L31.8113 34.6996L31.2825 28.8724L31.005 25.7895H60.0413ZM60 49.054V60.5487H47.2538L47.0213 57.9641L46.4963 52.1369L46.2188 49.054H60Z" fill="#EBEBEB"/>
</svg>

<svg xmlns="http://www.w3.org/2000/svg" width="120" height="119" fill="none" viewBox="0 0 120 119">
  <path fill="#1572B6" d="M22.133 101.154 13.71 7.438h92.58l-8.434 93.701-37.912 10.423-37.812-10.408Z"/>
  <path fill="#33A9DC" d="m60 103.597 30.638-8.423 7.207-80.072H60v88.495Z"/>
  <path fill="#fff" d="M60 49.054h15.338l1.057-11.77H60V25.79h29.063l-.278 3.082-2.846 31.677H60V49.054Z"/>
  <path fill="#EBEBEB" d="m60.071 78.904-.052.015-12.908-3.458-.825-9.167H34.65l1.624 18.047 23.741 6.538.056-.015v-11.96Z"/>
  <path fill="#fff" d="m74.351 60.062-1.395 15.391-12.926 3.459v11.96l23.76-6.53.176-1.942 2.014-22.339H74.351Z"/>
  <path fill="#EBEBEB" d="M60.041 25.79v11.494H32.044L31.81 34.7l-.529-5.828-.277-3.082H60.04ZM60 49.053v11.495H47.254l-.233-2.585-.525-5.827-.277-3.083H60Z"/>
</svg>
